!!! OTL: Berkowitz383
!!! Chapter: 1
!!! Section: III
!!! Page: 94
!!! Mode: 
!!! Encoder: DJB
**kern
*staff1
*I"Piano
=1-
*clefF4
*k[f#]
*e:
*M2/4
4r
8r
8BB/
=2
8E/L
8BB/J
8E\L
8F#\J
=3
8G\L
16F#\L
16E\JJ
8F#\L
8D\J
=4
4.E\
8B\
=5
4E\
8r
8D\
=6
8G\L
8F#\J
8G\L
8A\J
=7
8B\L
16A\L
16G\JJ
8A\L
8D\J
=8
4.G\
8d\
=9
4G\
8r
8B\
=10
!!linebreak:original
8c\L
16B\L
16A\JJ
8B\L
[8B\J
=11
8B\L]
16A\L
16G\JJ
8A\L
[8A\J
=12
8A\L]
16G\L
16F#\JJ
8G\L
16F#\L
16E\JJ
=13
8F#\L
8BB\J
8.B\L
16A\Jk
=14
8G\L
16F#\L
16E\JJ
8F#\L
8D\J
=15
4E\
8r
8A\
=16
8G\L
16F#\L
16E\JJ
8F#\L
8D\J
=17
4E\
8r
8A\
=18
4G\
8F#\L
8E\J
=19
!!linebreak:original
8F#\
8r
8D\
8r
=20
4r
8r
8BB/
=21
8E/L
8BB/J
8E\L
8F#\J
=22
8G\L
16F#\L
16E\JJ
8F#\L
8B\J
=23
[2E\
=24
4E\]
4r
==
*-
